Origami/22x22/apps/dirt-rally.svg

<svg width="22" height="22" version="1" xmlns="http://www.w3.org/2000/svg">
 <rect transform="matrix(0,-1,-1,0,0,0)" x="-21" y="-21" width="20" height="20" rx="1" ry="1" style="fill:#4f4f4f"/>
 <path d="m2 1c-0.554 0-1 0.446-1 1v0.5c0-0.554 0.446-1 1-1h18c0.554 0 1 0.446 1 1v-0.5c0-0.554-0.446-1-1-1h-18z" style="fill:#ffffff;opacity:.1"/>
 <path d="m2 21.5c-0.554 0-1-0.446-1-1v-0.5c0 0.554 0.446 1 1 1h18c0.554 0 1-0.446 1-1v0.5c0 0.554-0.446 1-1 1h-18z" style="opacity:.2"/>
 <path d="m6.5 3.5c-0.277 0-0.5 0.223-0.5 0.5v4.5 4.5c0 0.277 0.223 0.5 0.5 0.5h4.5a5 5 0 0 0 5 -5 5 5 0 0 0 -5 -5h-4.5zm2.701172 3h1.798828a2 2 0 0 1 2 2 2 2 0 0 1 -2 2h-1.798828c-0.1108 0-0.201172-0.090372-0.201172-0.201172v-1.798828-1.7988281c0-0.1107999 0.090372-0.2011719 0.201172-0.2011719z" style="opacity:.2"/>
 <path d="M 6.5,3 C 6.223,3 6,3.223 6,3.5 L 6,8 6,12.5 C 6,12.777 6.223,13 6.5,13 L 11,13 A 5,5 0 0 0 16,8 5,5 0 0 0 11,3 L 6.5,3 Z M 9.201172,6 11,6 a 2,2 0 0 1 2,2 2,2 0 0 1 -2,2 L 9.201172,10 C 9.090372,10 9,9.909628 9,9.798828 L 9,8 9,6.2011719 C 9,6.090372 9.090372,6 9.201172,6 Z" style="fill:#ffffff"/>
 <g transform="translate(-1 -.4999995)" style="opacity:.2;stroke:#000000">
  <path d="m5.5069175 20.492861-0.9999375-1.499906m-0.9999379-0.499969s1.9998754 0.232235 1.9998754-0.999936c0-1.232173-1.9998754-0.999938-1.9998754-0.999938m4.92e-5 3.999798v-3.999749" style="fill:none;stroke-linecap:round;stroke-width:.999937;stroke:#000000"/>
  <path d="m7.5070895 18.993005h1.999874m-1.999824 1.499905v-2.999811m1.999824 2.999811v-2.999811m-1.999874 0s0-0.999938 0.999937-0.999938 0.999937 0.999938 0.999937 0.999938" style="fill:none;stroke-linecap:round;stroke-linejoin:bevel;stroke-width:.999937;stroke:#000000"/>
  <path d="m11.500018 16.500232v3.999749h1.999874" style="fill:none;stroke-linecap:round;stroke-linejoin:round;stroke-width:.999937;stroke:#000000"/>
  <path d="m15.500018 16.500232v3.999749h1.999874" style="fill:none;stroke-linecap:round;stroke-linejoin:round;stroke-width:.999937;stroke:#000000"/>
  <path d="m19.504166 20.49291v-1.999875m1.499906-1.999874-1.499906 1.999874m-1.499905-1.999874 1.499905 1.999874" style="fill:none;stroke-linecap:round;stroke-width:.999937;stroke:#000000"/>
 </g>
 <g transform="translate(-1,-1)">
  <path d="m5.5069175 20.492861-0.9999375-1.499906m-0.9999379-0.499969s1.9998754 0.232235 1.9998754-0.999936c0-1.232173-1.9998754-0.999938-1.9998754-0.999938m4.92e-5 3.999798v-3.999749" style="fill:none;stroke-linecap:round;stroke-width:.999937;stroke:#f07400"/>
  <path d="m7.5070895 18.993005h1.999874m-1.999824 1.499905v-2.999811m1.999824 2.999811v-2.999811m-1.999874 0s0-0.999938 0.999937-0.999938 0.999937 0.999938 0.999937 0.999938" style="fill:none;stroke-linecap:round;stroke-linejoin:bevel;stroke-width:.999937;stroke:#f07400"/>
  <path d="m11.500018 16.500232v3.999749h1.999874" style="fill:none;stroke-linecap:round;stroke-linejoin:round;stroke-width:.999937;stroke:#f07400"/>
  <path d="m15.500018 16.500232v3.999749h1.999874" style="fill:none;stroke-linecap:round;stroke-linejoin:round;stroke-width:.999937;stroke:#f07400"/>
  <path d="m19.504166 20.49291v-1.999875m1.499906-1.999874-1.499906 1.999874m-1.499905-1.999874 1.499905 1.999874" style="fill:none;stroke-linecap:round;stroke-width:.999937;stroke:#f07400"/>
 </g>
</svg>

<svg xmlns="http://www.w3.org/2000/svg" width="22" height="22" version="1">
 <rect style="fill:#4f4f4f" width="20" height="20" x="-21" y="-21" rx="1" ry="1" transform="matrix(0,-1,-1,0,0,0)"/>
 <path style="opacity:0.1;fill:#ffffff" d="M 2,1 C 1.446,1 1,1.446 1,2 l 0,0.5 c 0,-0.554 0.446,-1 1,-1 l 18,0 c 0.554,0 1,0.446 1,1 L 21,2 C 21,1.446 20.554,1 20,1 L 2,1 Z"/>
 <path style="opacity:0.2" d="m 2,21.5 c -0.554,0 -1,-0.446 -1,-1 L 1,20 c 0,0.554 0.446,1 1,1 l 18,0 c 0.554,0 1,-0.446 1,-1 l 0,0.5 c 0,0.554 -0.446,1 -1,1 l -18,0 z"/>
 <path style="opacity:0.2" d="M 6.5,3.5 C 6.223,3.5 6,3.723 6,4 L 6,8.5 6,13 c 0,0.277 0.223,0.5 0.5,0.5 l 4.5,0 a 5,5 0 0 0 5,-5 5,5 0 0 0 -5,-5 l -4.5,0 z M 9.201172,6.5 11,6.5 a 2,2 0 0 1 2,2 2,2 0 0 1 -2,2 l -1.798828,0 C 9.090372,10.5 9,10.409628 9,10.298828 L 9,8.5 9,6.7011719 C 9,6.590372 9.090372,6.5 9.201172,6.5 Z"/>
 <path style="fill:#ffffff" d="M 6.5,3 C 6.223,3 6,3.223 6,3.5 L 6,8 6,12.5 C 6,12.777 6.223,13 6.5,13 L 11,13 A 5,5 0 0 0 16,8 5,5 0 0 0 11,3 L 6.5,3 Z M 9.201172,6 11,6 a 2,2 0 0 1 2,2 2,2 0 0 1 -2,2 L 9.201172,10 C 9.090372,10 9,9.909628 9,9.798828 L 9,8 9,6.2011719 C 9,6.090372 9.090372,6 9.201172,6 Z"/>
 <g style="opacity:0.2;stroke:#000000" transform="translate(-1,-0.4999995)">
  <path style="fill:none;stroke:#000000;stroke-width:0.999937;stroke-linecap:round" d="M 5.5069175,20.492861 4.50698,18.992955 M 3.5070421,18.492986 c 0,0 1.9998754,0.232235 1.9998754,-0.999936 0,-1.232173 -1.9998754,-0.999938 -1.9998754,-0.999938 m 4.92e-5,3.999798 0,-3.999749"/>
  <path style="fill:none;stroke:#000000;stroke-width:0.999937;stroke-linecap:round;stroke-linejoin:bevel" d="m 7.5070895,18.993005 1.999874,0 m -1.999824,1.499905 0,-2.999811 m 1.999824,2.999811 0,-2.999811 m -1.999874,0 c 0,0 0,-0.999938 0.999937,-0.999938 0.999937,0 0.999937,0.999938 0.999937,0.999938"/>
  <path style="fill:none;stroke:#000000;stroke-width:0.999937;stroke-linecap:round;stroke-linejoin:round" d="m 11.500018,16.500232 0,3.999749 1.999874,0 0,0"/>
  <path style="fill:none;stroke:#000000;stroke-width:0.999937;stroke-linecap:round;stroke-linejoin:round" d="m 15.500018,16.500232 0,3.999749 1.999874,0 0,0"/>
  <path style="fill:none;stroke:#000000;stroke-width:0.999937;stroke-linecap:round" d="m 19.504166,20.49291 0,-1.999875 m 1.499906,-1.999874 -1.499906,1.999874 m -1.499905,-1.999874 1.499905,1.999874"/>
 </g>
 <g transform="translate(-1,-1)">
  <path style="fill:none;stroke:#f07400;stroke-width:0.999937;stroke-linecap:round" d="M 5.5069175,20.492861 4.50698,18.992955 M 3.5070421,18.492986 c 0,0 1.9998754,0.232235 1.9998754,-0.999936 0,-1.232173 -1.9998754,-0.999938 -1.9998754,-0.999938 m 4.92e-5,3.999798 0,-3.999749"/>
  <path style="fill:none;stroke:#f07400;stroke-width:0.999937;stroke-linecap:round;stroke-linejoin:bevel" d="m 7.5070895,18.993005 1.999874,0 m -1.999824,1.499905 0,-2.999811 m 1.999824,2.999811 0,-2.999811 m -1.999874,0 c 0,0 0,-0.999938 0.999937,-0.999938 0.999937,0 0.999937,0.999938 0.999937,0.999938"/>
  <path style="fill:none;stroke:#f07400;stroke-width:0.999937;stroke-linecap:round;stroke-linejoin:round" d="m 11.500018,16.500232 0,3.999749 1.999874,0 0,0"/>
  <path style="fill:none;stroke:#f07400;stroke-width:0.999937;stroke-linecap:round;stroke-linejoin:round" d="m 15.500018,16.500232 0,3.999749 1.999874,0 0,0"/>
  <path style="fill:none;stroke:#f07400;stroke-width:0.999937;stroke-linecap:round" d="m 19.504166,20.49291 0,-1.999875 m 1.499906,-1.999874 -1.499906,1.999874 m -1.499905,-1.999874 1.499905,1.999874"/>
 </g>
</svg>
